X:5027
T:Tea In A Bottle Out In The Moss
R:Slip Jig
C:Aidan Crossey
M:9/8
K:D
|:F2A BAF AFA|F2A BAF E3|F2A BAF def|gfe agf d3:|
|:d2e f2d B2A|d2e f2d B3|d2e fed BdB|ABA dAF D3:|
